icon-svg/pendant-muscari.svg

<svg xmlns="http://www.w3.org/2000/svg" viewBox="0 0 24 24"><path fill="#44739e" d="M17.518 18.091v-.23a7 7 0 0 0-1.839-1.609L14.301 4.988a1.2 1.2 0 0 0 .46-.919v-.69C14.76 2.46 13.38 2 12.001 2s-2.759.46-2.759 1.379V4.3c0 .23.23.46.46.689L8.553 16.252c-1.38.46-1.839 1.609-2.069 1.609v.23c-1.379.46-2.3.92-2.3 1.609 0 1.15 3.448 2.3 7.816 2.3s7.816-.92 7.816-2.3c.001-.689-.915-1.149-2.298-1.609M12.461 5.448c.46 0 .689 0 .919-.23l1.15 10.574h-2.069Zm-1.839 0a10 10 0 0 0 1.149.23v10.114a7.8 7.8 0 0 0-2.3.23Zm-1.15 11.264a18.6 18.6 0 0 1 5.058 0 3.16 3.16 0 0 1 1.839 1.149 23 23 0 0 0-4.368-.462 23 23 0 0 0-4.368.46 2.84 2.84 0 0 1 1.839-1.147m2.529 3.678c-2.988 0-5.517-.46-5.517-.92s2.529-.919 5.517-.919 5.517.46 5.517.919-2.528.92-5.517.92"/></svg>

<?xml version="1.0" encoding="UTF-8"?>
<svg width="24px" height="24px" viewBox="0 0 24 24" version="1.1" fill="#44739e" xmlns="http://www.w3.org/2000/svg" xmlns:xlink="http://www.w3.org/1999/xlink">
            <path d="m 17.517,18.092 v -0.23 A 7.054,7.054 0 0 0 15.678,16.253 L 14.3,4.988 A 1.191,1.191 0 0 0 14.76,4.069 V 3.379 C 14.759,2.46 13.379,2 12,2 10.621,2 9.241,2.46 9.241,3.379 V 4.3 c 0,0.23 0.23,0.46 0.46,0.689 L 8.552,16.253 c -1.38,0.46 -1.839,1.609 -2.069,1.609 v 0.23 c -1.379,0.46 -2.3,0.92 -2.3,1.609 0,1.15 3.448,2.3 7.816,2.3 4.368,0 7.816,-0.92 7.816,-2.3 10e-4,-0.689 -0.915,-1.149 -2.298,-1.609 z M 12.46,5.448 c 0.46,0 0.689,0 0.919,-0.23 l 1.15,10.575 H 12.46 Z m -1.839,0 a 9.936,9.936 0 0 0 1.149,0.23 v 10.115 a 7.818,7.818 0 0 0 -2.3,0.23 z m -1.15,11.265 a 18.6,18.6 0 0 1 5.058,0 3.16,3.16 0 0 1 1.839,1.149 A 23.156,23.156 0 0 0 12,17.4 23.156,23.156 0 0 0 7.632,17.86 2.837,2.837 0 0 1 9.471,16.713 Z M 12,20.391 c -2.988,0 -5.517,-0.46 -5.517,-0.92 0,-0.46 2.529,-0.919 5.517,-0.919 2.988,0 5.517,0.46 5.517,0.919 0,0.459 -2.528,0.92 -5.517,0.92 z"></path>

</svg>
